svg/window_shutter_auto.svg

<svg xmlns="http://www.w3.org/2000/svg" viewBox="0 0 24 24"><path d="M20 14h-2l-3.2 9h1.9l.7-2h3.2l.7 2h1.9zm-2.2 5.7L19 16l1.2 3.7zM7 9h8v2H7zm0 3h8v2H7zm0 3h8v1.5l-.2.5H7zm6.7 5H7v-2h7.5zM16 8H6v12H4V8H2V4h18v4h-2v4h-1.4l-.5 1.3-.1.4z"/></svg>

<svg xmlns="http://www.w3.org/2000/svg" id="mdi-window-shutter-auto" viewBox="0 0 24 24"><path d="M20 14H18L14.8 23H16.7L17.4 21H20.6L21.3 23H23.2L20 14M17.8 19.7L19 16L20.2 19.7H17.8M7 9H15V11H7V9M7 12H15V14H7V12M7 15H15V16.5L14.8 17H7V15M13.7 20H7V18H14.5L13.7 20M16 8H6V20H4V8H2V4H20V8H18V12H16.6L16.1 13.3L16 13.7V8Z" /></svg>
